X: 4900
T: Branch Line, The
R: polka
M: 2/4
K: Gmajor
e|dB GG|FA Ac|BG Bd|g2 ge|
dB GG|FA Ac|BB dB|G2 G:|
|:d|ef gf/g/|af dd|ef gf/g/|a2 ad|
ef gf/g/|fa gf|ed ef|g2 g:|

